X:1
T:5 Poems, Op.19
T:Scheiden und Meiden
T:2. Scheiden und Meiden
T:Johannes Brahms
T:Ludwig Uhland
T:5 Poems, Op.19
T:OpenScore (CC0)
C:Johannes Brahms
Z:Ludwig Uhland
Z:OpenScore (CC0)
%%score 1 { ( 2 4 ) | 3 }
L:1/8
Q:1/4=80
M:3/4
K:F
V:1 treble nm="Singstimme\nVoice"
V:2 treble nm="Pianoforte"
V:4 treble 
V:3 bass 
V:1
!f!"^Nicht zu langsam und mit starkem Ausdruck" D2 |: (D2 A2) d2 | A4 e2 | A4 d2 | z2 z2 d2 | %5
w: So|soll _ ich|dich nun|mei- den,|du|
w: |Lieb- * chen,|heißt das|meui- den,|wenn|
 (c2 A2) B2 | (c2 F2) G2 | A4 z2 | z2 z2 c2 | A4 c2 | A4 e2 | =B6 | A4 c2 | (=B2 A2) G2 | %14
w: mei- * nes|Le- * bens|Lust!|Du|küs- sest|mich zum|Schei-|den, ich|drü- * cke|
w: man _ sich|herzt _ und|küsst?|Ach,|Lieb- chen,|heißt das|schei-|den, wenn|man _ sich|
 (E2 D2) E2 | D4 z2 | z6 | z6 | z6 | z6 |1 z2 z2 D2 :|2 z6 | z2 !fermata!z2 |] %23
w: dich an die|Brust!|||||Ach,|||
w: fest _ um-|chließt?||||||||
V:2
 z2 |: z2 z A,DA!f! | z2 z A,EA | z2 z A,DA | z2 z A,DA | z2 z CFc | z2 z CEc | z2 z C ([Ac]2 | %8
 [FA]4) ([Ac]2 | [CA]4) ([Ac]2 | [CA]4) ([Ace]2 | [D^G=B]6) | [CA]4 [CAc]2 | %13
 ([=G=B]2 [FA]2 [EG]2) | (E2 D2 E2) | [F,D]4 ([A,DF]2 | [A,EA]4) ([EA]2 | [EG=B]4) [EGB]2 | %18
 (P^c3 =B c2) |!>(! d4 ([FA]2!>)! |1 [DF]3) A,DA- :|2!>(! [FA]4 ([FA]2!>)! | !fermata![A,F]4) |] %23
V:3
 z2 |:!ped! D,,!ped-up!A,,F, z z2 | D,,A,,F, z G, z | D,,A,,F, z z2 | D,,A,,F, z z2 | %5
 F,,C,A, z z2 | A,,C,A, z [C,G,] z | (F,,C,A,) z z2 | (F,,C,A,C) z2 | (A,,,A,,C,E,) z2 | %10
 (A,,,A,,E,A,) z2 | (A,,,A,,E,A,) z2 | (A,,,A,,C,E,) z2 | (F,,,F,,C,F,) [G,,,G,,]2 | %14
 (A,,,A,,^C,E,) z2 | (D,,A,,D,F,) z2 | (C,,C,E,A,) z2 | (G,,,G,,=B,,E,) z2 | (A,,,A,,E,G,) z2 | %19
 (D,,A,,D,F,) z2 |1 D,,A,,F, z z2 :|2 (D,,A,,D,F,) z2 | %22
 (D,,"^rit."!fermata!A,,!fermata!D,!fermata!F,) |] %23
V:4
 x2 |: x6 | x6 | x6 | x6 | x6 | x6 | x6 | x6 | x6 | x6 | x6 | x6 | C4 =B,2 | [G,^C]4 [G,C]2 | x6 | %16
 x6 | x6 | [EG]4 [EG]2 | [DF]4 x2 |1 x6 :|2 x6 | x4 |] %23

